X: 4134
T: The CAMERONIAN
R: Reel.
%R: reel
B: James Kerr "Merry Melodies" v.4 p.16 #134
Z: 2016 John Chambers <jc:trillian.mit.edu>
M: C|
L: 1/8
K: G
dc |:\
Bdde dcBG | Bdde dega |\
beed efga |[1 bgaf gfed :|[2 bgaf g2 ||
|: (dc) |\
Bcdc BGGB | BGed BGGB |\
[1 c2(cd) eAAB | cAeA (cA) :|\
gfed (3(efg) (af)| gedB G2 |]

%%sep 1 1 500
%%sep 1 1 500

